svg/call_split.svg

<svg xmlns="http://www.w3.org/2000/svg" viewBox="0 0 24 24"><path d="m14 4 2.29 2.29-2.88 2.88 1.42 1.42 2.88-2.88L20 10V4M10 4H4v6l2.29-2.29 4.71 4.7V20h2v-8.41l-5.29-5.3"/></svg>

<?xml version="1.0" encoding="UTF-8"?><!DOCTYPE svg PUBLIC "-//W3C//DTD SVG 1.1//EN" "http://www.w3.org/Graphics/SVG/1.1/DTD/svg11.dtd"><svg xmlns="http://www.w3.org/2000/svg" xmlns:xlink="http://www.w3.org/1999/xlink" version="1.1" id="mdi-call-split" width="24" height="24" viewBox="0 0 24 24"><path d="M14,4L16.29,6.29L13.41,9.17L14.83,10.59L17.71,7.71L20,10V4M10,4H4V10L6.29,7.71L11,12.41V20H13V11.59L7.71,6.29" /></svg>
